.local/share/icons/Gruvbox-Plus-Dark/mimetypes/scalable/application-vnd.nintendo.snes.rom.svg

<svg width="256" height="256" viewBox="0 0 256 256" fill="none" xmlns="http://www.w3.org/2000/svg">
<g opacity="0.4" filter="url(#filter0_f)">
<path d="M55.0839 15.5636H155.608L216.009 75.7129L216.011 224.609C216.011 233.52 208.749 240.737 199.838 240.737H55.0838C46.1734 240.737 39 233.564 39 224.654V31.6474C39 22.737 46.1734 15.5636 55.0838 15.5636H55.0839Z" fill="#282828"/>
</g>
<path d="M55.0839 15H155.608L216.009 75.1493L216.011 224.045C216.011 232.956 208.749 240.174 199.838 240.174H55.0838C46.1734 240.174 39 233 39 224.09V31.0838C39 22.1734 46.1734 15 55.0838 15H55.0839Z" fill="#ebdbb2"/>
<path fill-rule="evenodd" clip-rule="evenodd" d="M155.608 20.3191H55.0839C49.1112 20.3191 44.3191 25.1111 44.3191 31.0838V224.09C44.3191 230.063 49.1111 234.855 55.0838 234.855H199.838C205.83 234.855 210.692 229.999 210.692 224.046V75.1493L155.608 20.3191ZM155.608 15H55.0839C46.1735 15 39 22.1734 39 31.0838V224.09C39 233 46.1734 240.174 55.0838 240.174H199.838C208.749 240.174 216.011 232.956 216.011 224.045L216.009 75.1493L155.608 15Z" fill="url(#paint0_linear)"/>
<path d="M127.995 68C94.9499 68 68 94.865 68 128C68 161.135 94.9499 188 127.995 188C161.065 188 188 161.135 188 128C188 94.865 161.043 68 127.995 68V68ZM127.995 75.575C157.13 75.575 180.574 99.0543 180.574 128.003C180.574 156.953 157.123 180.432 127.995 180.432C98.877 180.432 75.4149 156.954 75.4149 128.003C75.4149 99.0532 98.8728 75.575 127.995 75.575ZM129.705 83.0493C127.529 83.0475 125.374 83.4755 123.364 84.3088C121.355 85.1421 119.529 86.3642 117.993 87.905L87.8768 117.98C86.3338 119.512 85.1093 121.334 84.2737 123.342C83.438 125.349 83.0078 127.502 83.0078 129.676C83.0078 131.851 83.438 134.003 84.2737 136.011C85.1093 138.018 86.3338 139.84 87.8768 141.373C89.4138 142.913 91.2396 144.135 93.2498 144.969C95.2599 145.803 97.4149 146.233 99.5912 146.233C101.768 146.233 103.922 145.803 105.933 144.969C107.943 144.135 109.769 142.913 111.306 141.373L141.421 111.297C142.964 109.765 144.188 107.943 145.024 105.936C145.86 103.928 146.29 101.776 146.29 99.6012C146.29 97.4269 145.86 95.2741 145.024 93.2667C144.188 91.2594 142.964 89.4371 141.421 87.905C139.886 86.3636 138.062 85.1411 136.053 84.3077C134.044 83.4744 131.89 83.0467 129.716 83.0493H129.705ZM129.705 85.4193C133.338 85.4193 136.976 86.8025 139.751 89.5775C145.309 95.12 145.309 104.108 139.751 109.652C134.179 115.193 125.189 115.193 119.657 109.652C114.117 104.123 114.117 95.135 119.657 89.5775C120.976 88.2577 122.543 87.211 124.267 86.4975C125.991 85.784 127.839 85.4176 129.705 85.4193V85.4193ZM156.478 109.772C154.302 109.77 152.148 110.198 150.138 111.032C148.128 111.865 146.302 113.087 144.766 114.627L114.651 144.702C113.108 146.235 111.883 148.057 111.048 150.064C110.212 152.072 109.782 154.224 109.782 156.399C109.782 158.573 110.212 160.726 111.048 162.733C111.883 164.741 113.108 166.563 114.651 168.095C116.189 169.636 118.016 170.858 120.027 171.692C122.038 172.526 124.194 172.955 126.371 172.955C128.548 172.955 130.704 172.526 132.715 171.692C134.726 170.858 136.552 169.636 138.091 168.095L168.206 138.02C169.749 136.487 170.973 134.663 171.809 132.655C172.645 130.647 173.075 128.493 173.075 126.318C173.075 124.143 172.645 121.989 171.809 119.981C170.973 117.972 169.749 116.149 168.206 114.616C166.669 113.075 164.844 111.853 162.834 111.02C160.824 110.187 158.67 109.758 156.494 109.76L156.478 109.771V109.772ZM156.478 112.164C160.113 112.164 163.754 113.547 166.536 116.311C172.076 121.887 172.076 130.832 166.536 136.377C160.978 141.905 151.993 141.905 146.442 136.377C140.902 130.802 140.902 121.857 146.442 116.311C147.76 114.994 149.325 113.949 151.047 113.238C152.769 112.526 154.615 112.162 156.478 112.164V112.164ZM99.5853 115.512C101.451 115.51 103.3 115.876 105.024 116.59C106.748 117.304 108.314 118.35 109.633 119.671C115.173 125.199 115.173 134.176 109.633 139.737C104.048 145.28 95.071 145.28 89.5494 139.737C83.9914 134.195 83.9914 125.218 89.5494 119.671C90.8657 118.351 92.43 117.304 94.1523 116.59C95.8746 115.876 97.721 115.51 99.5853 115.512V115.512ZM126.359 142.231C129.99 142.231 133.613 143.615 136.373 146.39C141.931 151.932 141.931 160.91 136.373 166.457C130.833 172.032 121.847 172.032 116.324 166.457C110.766 160.928 110.766 151.952 116.324 146.39C117.64 145.07 119.204 144.023 120.927 143.309C122.649 142.595 124.495 142.229 126.359 142.231Z" fill="url(#paint1_linear)"/>
<path opacity="0.25" d="M155.608 17V61.2306C155.608 70.141 162.867 77.1605 171.777 77.1605L216.009 77.1493V75.1493L155.608 17Z" fill="#282828"/>
<path d="M155.608 15V59.2306C155.608 68.141 162.867 75.1605 171.777 75.1605L216.009 75.1493L155.608 15Z" fill="url(#paint2_linear)"/>
<defs>
<filter id="filter0_f" x="23.8778" y="0.441412" width="207.255" height="255.418" filterUnits="userSpaceOnUse" color-interpolation-filters="sRGB">
<feFlood flood-opacity="0" result="BackgroundImageFix"/>
<feBlend mode="normal" in="SourceGraphic" in2="BackgroundImageFix" result="shape"/>
<feGaussianBlur stdDeviation="7.5611" result="effect1_foregroundBlur"/>
</filter>
<linearGradient id="paint0_linear" x1="39" y1="15" x2="39" y2="240.174" gradientUnits="userSpaceOnUse">
<stop offset="1e-07" stop-color="#b16286"/>
<stop offset="1" stop-color="#8f3f71"/>
</linearGradient>
<linearGradient id="paint1_linear" x1="68" y1="68" x2="68" y2="188" gradientUnits="userSpaceOnUse">
<stop offset="1e-07" stop-color="#b16286"/>
<stop offset="1" stop-color="#8f3f71"/>
</linearGradient>
<linearGradient id="paint2_linear" x1="155.608" y1="15" x2="155.608" y2="75.1605" gradientUnits="userSpaceOnUse">
<stop offset="1e-07" stop-color="#b16286"/>
<stop offset="1" stop-color="#8f3f71"/>
</linearGradient>
</defs>
</svg>

<svg width="256" height="256" fill="none" version="1.1" viewBox="0 0 256 256" xmlns="http://www.w3.org/2000/svg">
  <path d="m55.08 15h100.5l60.4 60.15 2e-3 148.9c0 8.911-7.262 16.13-16.17 16.13h-144.8c-8.91 0-16.08-7.174-16.08-16.08v-193c0-8.91 7.173-16.08 16.08-16.08h1e-4z" fill="#ebdbb2"/>
  <path d="m155.6 20.32h-100.5c-5.973 0-10.76 4.792-10.76 10.76v193c0 5.973 4.792 10.76 10.76 10.76h144.8c5.992 0 10.85-4.856 10.85-10.81v-148.9l-55.08-54.83zm0-5.319h-100.5c-8.91 0-16.08 7.173-16.08 16.08v193c0 8.91 7.173 16.08 16.08 16.08h144.8c8.911 0 16.17-7.218 16.17-16.13l-2e-3 -148.9-60.4-60.15z" clip-rule="evenodd" fill="url(#paint0_linear)" fill-rule="evenodd"/>
  <path d="m128 68c-33.05 0-60 26.86-60 60s26.95 60 60 60c33.07 0 60-26.86 60-60s-26.96-60-60-60zm0 7.575c29.14 0 52.58 23.48 52.58 52.43 0 28.95-23.45 52.43-52.58 52.43-29.12 0-52.58-23.48-52.58-52.43 0-28.95 23.46-52.43 52.58-52.43zm1.71 7.474c-2.176-0.0018-4.331 0.4262-6.341 1.26-2.009 0.8333-3.835 2.055-5.371 3.596l-30.12 30.08c-1.543 1.532-2.768 3.354-3.603 5.362-0.8357 2.007-1.266 4.16-1.266 6.334 0 2.175 0.4302 4.327 1.266 6.335 0.8356 2.007 2.06 3.829 3.603 5.362 1.537 1.54 3.363 2.762 5.373 3.596 2.01 0.834 4.165 1.264 6.341 1.264 2.177 0 4.331-0.43 6.342-1.264 2.01-0.834 3.836-2.056 5.373-3.596l30.12-30.08c1.543-1.532 2.767-3.354 3.603-5.361 0.836-2.008 1.266-4.16 1.266-6.335 0-2.174-0.43-4.327-1.266-6.334-0.836-2.007-2.06-3.83-3.603-5.362-1.535-1.541-3.359-2.764-5.368-3.597-2.009-0.8333-4.163-1.261-6.337-1.258h-0.011zm0 2.37c3.633 0 7.271 1.383 10.05 4.158 5.558 5.542 5.558 14.53 0 20.07-5.572 5.541-14.56 5.541-20.09 0-5.54-5.529-5.54-14.52 0-20.07 1.319-1.32 2.886-2.366 4.61-3.08s3.572-1.08 5.438-1.078zm26.77 24.35c-2.176-2e-3 -4.33 0.426-6.34 1.26-2.01 0.833-3.836 2.055-5.372 3.595l-30.12 30.08c-1.543 1.533-2.768 3.355-3.603 5.362-0.836 2.008-1.266 4.16-1.266 6.335 0 2.174 0.43 4.327 1.266 6.334 0.835 2.008 2.06 3.83 3.603 5.362 1.538 1.541 3.365 2.763 5.376 3.597s4.167 1.263 6.344 1.263 4.333-0.429 6.344-1.263 3.837-2.056 5.376-3.597l30.12-30.08c1.543-1.533 2.767-3.357 3.603-5.365s1.266-4.162 1.266-6.337-0.43-4.329-1.266-6.337c-0.836-2.009-2.06-3.832-3.603-5.365-1.537-1.541-3.362-2.763-5.372-3.596s-4.164-1.262-6.34-1.26l-0.016 0.011v1e-3zm0 2.392c3.635 0 7.276 1.383 10.06 4.147 5.54 5.576 5.54 14.52 0 20.07-5.558 5.528-14.54 5.528-20.09 0-5.54-5.575-5.54-14.52 0-20.07 1.318-1.317 2.883-2.362 4.605-3.073 1.722-0.712 3.568-1.076 5.431-1.074zm-56.89 3.348c1.866-2e-3 3.715 0.364 5.439 1.078s3.29 1.76 4.609 3.081c5.54 5.528 5.54 14.5 0 20.07-5.585 5.543-14.56 5.543-20.08 0-5.558-5.542-5.558-14.52 0-20.07 1.316-1.32 2.881-2.367 4.603-3.081s3.569-1.08 5.433-1.078zm26.77 26.72c3.631 0 7.254 1.384 10.01 4.159 5.558 5.542 5.558 14.52 0 20.07-5.54 5.575-14.53 5.575-20.05 0-5.558-5.529-5.558-14.5 0-20.07 1.316-1.32 2.88-2.367 4.603-3.081 1.722-0.714 3.568-1.08 5.432-1.078z" fill="url(#paint1_linear)"/>
  <path d="m155.6 17v44.23c0 8.91 7.259 15.93 16.17 15.93l44.23-0.0112v-2l-60.4-58.15z" fill="#282828" opacity=".25"/>
  <path d="m155.6 15v44.23c0 8.91 7.259 15.93 16.17 15.93l44.23-0.0112-60.4-60.15z" fill="url(#paint2_linear)"/>
  <defs>
    <linearGradient id="paint0_linear" x1="39" x2="39" y1="15" y2="240.2" gradientUnits="userSpaceOnUse">
      <stop stop-color="#b16286" offset="1e-7"/>
      <stop stop-color="#8f3f71" offset="1"/>
    </linearGradient>
    <linearGradient id="paint1_linear" x1="68" x2="68" y1="68" y2="188" gradientUnits="userSpaceOnUse">
      <stop stop-color="#b16286" offset="1e-7"/>
      <stop stop-color="#8f3f71" offset="1"/>
    </linearGradient>
    <linearGradient id="paint2_linear" x1="155.6" x2="155.6" y1="15" y2="75.16" gradientUnits="userSpaceOnUse">
      <stop stop-color="#b16286" offset="1e-7"/>
      <stop stop-color="#8f3f71" offset="1"/>
    </linearGradient>
  </defs>
</svg>
